X:732
L:1/8
M:6/8
K:Emin
 B | G2 E E>FE | D2 D D>ED | E2 E E>FE | c3 B2 B | G2 E E>FE | D2 D D>ED | G2 E E>FE | G3 B2 :| D | 
 G2 A B2 c | d2 e d2 B | G2 A B2 c | d3 d2 c/d/ | e2 c d2 B | c2 TA !fermata!B2 TA | G2 E E>FE | 
 c3 B2 B | G2 E E>FE | D2 D D>ED | E2 E E>FE | G3 G2 B | G2 E E>FE | D2 D D>ED | E2 E E>FE | 
 G3 B2 ||

